Obsidian/actions/24s/send-to.svg

<svg height="24" viewBox="0 0 24 24" width="24" xmlns="http://www.w3.org/2000/svg"><path d="m9 1.0039062 1.21875 1.90625-4.40625 2.75c-.51544-.41091-1.1508-.6562899-1.8125-.65625-1.5709.0000901-3 1.4293-3 3 0 1.5707001 1.4291 2.9998998 3 2.9999998.66168.00004 1.2971-.27659 1.8125-.6875l4.40625 2.779297-1.21875 1.90625h6l-2.5-5.4999999-1.21875 1.9374999-4.375-2.7812499c.0545-.21463.09375-.43211.09375-.65625s-.03935-.44162-.09375-.65625l4.375-2.7792969 1.21875 1.9375 2.5-5.5z" fill="#bebebe" transform="translate(4 4)"/></svg>

<svg xmlns="http://www.w3.org/2000/svg" width="24" height="24" viewBox="0 0 24 24">
 <defs>
  <style id="current-color-scheme" type="text/css">
   .ColorScheme-Text { color:#bebebe; } .ColorScheme-Highlight { color:#4285f4; }
  </style>
 </defs>
 <path style="fill:currentColor" class="ColorScheme-Text" d="M 9 1.0039062 L 10.21875 2.9101562 L 5.8125 5.6601562 C 5.29706 5.2492462 4.6617 5.0038663 4 5.0039062 C 2.4291 5.0039963 1 6.4332062 1 8.0039062 C 1 9.5746063 2.4291 11.003806 4 11.003906 C 4.66168 11.003946 5.2971 10.727316 5.8125 10.316406 L 10.21875 13.095703 L 9 15.001953 L 15 15.001953 L 12.5 9.5019531 L 11.28125 11.439453 L 6.90625 8.6582031 C 6.96075 8.4435731 7 8.2260931 7 8.0019531 C 7 7.7778131 6.96065 7.5603331 6.90625 7.3457031 L 11.28125 4.5664062 L 12.5 6.5039062 L 15 1.0039062 L 9 1.0039062 z" transform="translate(4 4)"/>
</svg>
